X: 38874
T: Sunny Banks Highland
R: barndance
M: 4/4
K: Dmajor
B|A2 FA dA F2|GBAF G3 B|A2 FA dA F2|GBAF D3 B|
B|A2 FA dA F2|GBAF G3 B|A2 FA dA F2|GBAF D3 f||
gfed cB A2|gfef g2 ag|(3fga ed cBAc|BGAFD3 f|
gfed cB A2|gfef g2 ag|(3fga ed cBAc|BGAF D3||

